Assets/SettingsPanel/SelfRemoval.svg

<?xml version="1.0" encoding="UTF-8"?>
<svg xmlns="http://www.w3.org/2000/svg" xmlns:xlink="http://www.w3.org/1999/xlink" width="32px" height="32px" viewBox="0 0 32 32" version="1.1">
<g id="surface1">
<path style=" stroke:none;fill-rule:nonzero;fill:rgb(0%,0%,0%);fill-opacity:1;" d="M 27.519531 20.800781 C 27.941406 20.800781 28.363281 20.800781 28.800781 20.800781 C 29 24.851562 29 24.851562 28.261719 26.441406 C 26.699219 28.042969 25.699219 28.824219 23.46875 28.902344 C 23.109375 28.914062 22.75 28.929688 22.378906 28.941406 C 22.003906 28.953125 21.628906 28.96875 21.238281 28.980469 C 20.859375 28.992188 20.484375 29.007812 20.09375 29.023438 C 19.15625 29.054688 18.21875 29.089844 17.28125 29.121094 C 17.914062 30.070312 17.914062 30.070312 18.558594 31.039062 C 18.136719 31.355469 17.714844 31.671875 17.28125 32 C 16.117188 30.839844 14.957031 29.675781 13.761719 28.480469 C 14.375 27.25 14.910156 26.621094 15.878906 25.679688 C 16.140625 25.425781 16.402344 25.167969 16.671875 24.90625 C 16.871094 24.710938 17.074219 24.519531 17.28125 24.320312 C 17.703125 24.742188 18.125 25.164062 18.558594 25.601562 C 18.136719 26.128906 17.714844 26.65625 17.28125 27.199219 C 18.238281 27.226562 19.199219 27.246094 20.160156 27.261719 C 20.429688 27.269531 20.695312 27.277344 20.972656 27.285156 C 22.847656 27.304688 24.234375 27.089844 25.921875 26.238281 C 26.855469 25.125 27.058594 24.039062 27.261719 22.621094 C 27.335938 22.105469 27.335938 22.105469 27.414062 21.582031 C 27.449219 21.324219 27.484375 21.066406 27.519531 20.800781 Z M 27.519531 20.800781 "/>
<path style=" stroke:none;fill-rule:nonzero;fill:rgb(0%,0%,0%);fill-opacity:1;" d="M 3.519531 13.761719 C 4.75 14.375 5.378906 14.910156 6.320312 15.878906 C 6.574219 16.140625 6.832031 16.402344 7.09375 16.671875 C 7.289062 16.871094 7.480469 17.074219 7.679688 17.28125 C 7.257812 17.703125 6.835938 18.125 6.398438 18.558594 C 5.871094 18.136719 5.34375 17.714844 4.800781 17.28125 C 4.773438 18.238281 4.753906 19.199219 4.738281 20.160156 C 4.730469 20.429688 4.722656 20.695312 4.714844 20.972656 C 4.695312 22.847656 4.910156 24.234375 5.761719 25.921875 C 6.875 26.855469 7.960938 27.058594 9.378906 27.261719 C 9.894531 27.335938 9.894531 27.335938 10.417969 27.414062 C 10.675781 27.449219 10.933594 27.484375 11.199219 27.519531 C 11.199219 27.941406 11.199219 28.363281 11.199219 28.800781 C 7.148438 29 7.148438 29 5.558594 28.261719 C 3.957031 26.699219 3.175781 25.699219 3.097656 23.46875 C 3.078125 22.929688 3.078125 22.929688 3.058594 22.378906 C 3.046875 22.003906 3.03125 21.628906 3.019531 21.238281 C 3 20.671875 3 20.671875 2.976562 20.09375 C 2.945312 19.15625 2.910156 18.21875 2.878906 17.28125 C 2.246094 17.703125 1.613281 18.125 0.960938 18.558594 C 0.644531 18.136719 0.328125 17.714844 0 17.28125 C 1.160156 16.117188 2.324219 14.957031 3.519531 13.761719 Z M 3.519531 13.761719 "/>
<path style=" stroke:none;fill-rule:nonzero;fill:rgb(0%,0%,0%);fill-opacity:1;" d="M 20.800781 3.199219 C 24.851562 3 24.851562 3 26.441406 3.738281 C 28.042969 5.300781 28.824219 6.300781 28.902344 8.53125 C 28.914062 8.890625 28.929688 9.25 28.941406 9.621094 C 28.953125 9.996094 28.96875 10.371094 28.980469 10.761719 C 28.992188 11.140625 29.007812 11.515625 29.023438 11.90625 C 29.054688 12.84375 29.089844 13.78125 29.121094 14.71875 C 29.753906 14.296875 30.386719 13.875 31.039062 13.441406 C 31.355469 13.863281 31.671875 14.285156 32 14.71875 C 30.839844 15.882812 29.675781 17.042969 28.480469 18.238281 C 27.25 17.625 26.621094 17.089844 25.679688 16.121094 C 25.425781 15.859375 25.167969 15.597656 24.90625 15.328125 C 24.710938 15.128906 24.519531 14.925781 24.320312 14.71875 C 24.742188 14.296875 25.164062 13.875 25.601562 13.441406 C 26.128906 13.863281 26.65625 14.285156 27.199219 14.71875 C 27.226562 13.761719 27.246094 12.800781 27.261719 11.839844 C 27.269531 11.570312 27.277344 11.304688 27.285156 11.027344 C 27.304688 9.152344 27.089844 7.765625 26.238281 6.078125 C 25.125 5.144531 24.039062 4.941406 22.621094 4.738281 C 22.277344 4.6875 21.9375 4.636719 21.582031 4.585938 C 21.324219 4.550781 21.066406 4.515625 20.800781 4.480469 C 20.800781 4.058594 20.800781 3.636719 20.800781 3.199219 Z M 20.800781 3.199219 "/>
<path style=" stroke:none;fill-rule:nonzero;fill:rgb(0%,0%,0%);fill-opacity:1;" d="M 14.398438 0 C 15.738281 1.121094 17.023438 2.265625 18.238281 3.519531 C 17.75 4.699219 17.03125 5.4375 16.121094 6.320312 C 15.859375 6.574219 15.597656 6.832031 15.328125 7.09375 C 15.128906 7.289062 14.925781 7.480469 14.71875 7.679688 C 14.296875 7.257812 13.875 6.835938 13.441406 6.398438 C 13.863281 5.871094 14.285156 5.34375 14.71875 4.800781 C 13.746094 4.78125 12.773438 4.769531 11.800781 4.761719 C 11.527344 4.753906 11.253906 4.75 10.96875 4.742188 C 9.101562 4.730469 7.53125 4.808594 6 6 C 4.800781 7.542969 4.675781 9.316406 4.480469 11.199219 C 4.058594 11.199219 3.636719 11.199219 3.199219 11.199219 C 3 7.148438 3 7.148438 3.738281 5.558594 C 5.300781 3.957031 6.300781 3.175781 8.53125 3.097656 C 8.890625 3.085938 9.25 3.070312 9.621094 3.058594 C 9.996094 3.046875 10.371094 3.03125 10.761719 3.019531 C 11.328125 3 11.328125 3 11.90625 2.976562 C 12.84375 2.945312 13.78125 2.910156 14.71875 2.878906 C 14.296875 2.246094 13.875 1.613281 13.441406 0.960938 C 13.757812 0.644531 14.074219 0.328125 14.398438 0 Z M 14.398438 0 "/>
</g>
</svg>

<svg xmlns="http://www.w3.org/2000/svg" width="32" height="32" viewBox="0 0 32 32"><path d="M27.52 20.8h1.28c.2 4.052.2 4.052-.538 5.641-1.563 1.602-2.563 2.383-4.793 2.461-.36.012-.719.028-1.09.04-.375.011-.75.027-1.14.038-.38.012-.755.028-1.145.043q-1.406.05-2.813.098l1.278 1.918c-.422.316-.844.633-1.278.961-1.164-1.16-2.324-2.324-3.52-3.52.614-1.23 1.15-1.859 2.118-2.8.262-.254.523-.512.793-.774.2-.195.402-.386.61-.586.421.422.843.844 1.277 1.282l-1.278 1.597q1.436.04 2.88.063l.812.023c1.875.02 3.261-.195 4.949-1.047.933-1.113 1.137-2.199 1.34-3.617.074-.516.074-.516.152-1.039zm-24-7.038c1.23.613 1.859 1.148 2.8 2.117.254.262.512.523.774.793.195.2.386.402.586.61-.422.421-.844.843-1.282 1.277L4.801 17.28a234 234 0 0 0-.063 2.88l-.023.812c-.02 1.875.195 3.261 1.047 4.949 1.113.933 2.199 1.137 3.617 1.34.516.074.516.074 1.039.152l.781.106v1.28c-4.05.2-4.05.2-5.64-.538-1.602-1.563-2.383-2.563-2.461-4.793l-.04-1.09c-.011-.375-.027-.75-.038-1.14-.02-.567-.02-.567-.043-1.145q-.05-1.406-.098-2.813L.96 18.56A267 267 0 0 0 0 17.28c1.16-1.164 2.324-2.324 3.52-3.52M20.8 3.2c4.052-.2 4.052-.2 5.641.538 1.602 1.563 2.383 2.563 2.461 4.793.012.36.028.719.04 1.09.011.375.027.75.038 1.14.012.38.028.755.043 1.145q.05 1.406.098 2.813l1.918-1.278c.316.422.633.844.961 1.278-1.16 1.164-2.324 2.324-3.52 3.52-1.23-.614-1.859-1.15-2.8-2.118-.254-.262-.512-.523-.774-.793-.195-.2-.386-.402-.586-.61.422-.421.844-.843 1.282-1.277l1.597 1.278q.04-1.436.063-2.88l.023-.812c.02-1.875-.195-3.261-1.047-4.949-1.113-.933-2.199-1.137-3.617-1.34-.344-.05-.683-.101-1.039-.152l-.781-.106zM14.398 0c1.34 1.121 2.625 2.266 3.84 3.52-.488 1.18-1.207 1.918-2.117 2.8-.262.254-.523.512-.793.774-.2.195-.402.386-.61.586-.421-.422-.843-.844-1.277-1.282l1.278-1.597q-1.46-.028-2.918-.04c-.274-.007-.547-.011-.832-.019C9.102 4.73 7.53 4.81 6 6c-1.2 1.543-1.324 3.316-1.52 5.2H3.2C3 7.147 3 7.147 3.737 5.558 5.3 3.956 6.3 3.175 8.53 3.097c.36-.012.719-.028 1.09-.04.375-.011.75-.027 1.14-.038.567-.02.567-.02 1.145-.043q1.406-.05 2.813-.098L13.44.96c.317-.316.633-.633.957-.961m0 0"/></svg>
